X: 1029
T: The Opera.
%R: jig
B: Henry Playford "Apollo's Banquet", London 1687 (5th Edition)
F: https://archive.org/details/apollosbanquetco01rugg
Z: 2017 John Chambers <jc:trillian.mit.edu>
M: 6/4
L: 1/4
K: Bb
% - - - - - - - - - -
B |\
B3 cF2 | B3- B2(d/c/) | B2(e/d/) cF2 | B3- B2f |\
d2g f2b | af2 b2a | gaf gc2 | f3- f2 :|
|: f |\
f2c f2B | fdB f2d | gfd eGc | =B3 c2f |\
dBb a2g | fdg f2d | ecA fd2 | c3 B2 |]
% - - - - - - - - - -

%%sep 1 1 500
%%sep 1 1 500

